assets/illustrations/spots/folder-7.svg

<svg width="500" height="504" viewBox="0 0 500 504" fill="none" xmlns="http://www.w3.org/2000/svg"><path d="M292.319 23.169c32.745-14.874 73.766-16.037 105.607.72 31.842 16.756 48.557 66.611 43.433 102.479-3.124 21.77-15.318 42.376-13.126 64.257 3.233 32.046 34.718 52.126 53.078 78.438 24.662 35.369 24.415 85.612 2.219 122.587-22.195 36.976-64.148 60.048-106.868 62.319-42.72 2.271-85.439-15.151-117.226-44.122-19.181-17.421-33.403-40.327-54.393-55.394-53.598-38.499-145.587 9.14-180.333-24.429-46.584-44.952-18.36-115.496 11.59-136.685 61.82-43.733 102.566 2.41 156.877-20.329 20.031-8.309 39.76-21.299 48.474-41.38 8.221-19.166 4.439-79.933 50.694-108.517" fill="#B9CBD3" style="mix-blend-mode:luminosity" opacity=".16"/><g opacity=".1" filter="url(#folder-7__a)"><path d="M421.25 474.792c0 7.249-72.194 13.125-161.25 13.125s-161.25-5.876-161.25-13.125 72.194-13.125 161.25-13.125 161.25 5.876 161.25 13.125Z" fill="#0A0F1A"/></g><path d="M391.451 166.667h-263.46c-21.346-.035-38.679 17.241-38.714 38.588a38.536 38.536 0 0 0 .343 5.193 7.749 7.749 0 0 0 11.608 5.687 21.937 21.937 0 0 1 11.266-2.975h55.172a23.37 23.37 0 0 1 22.038 15.776l1.317 4.246a38.928 38.928 0 0 0 36.776 26.47h179.152a23.243 23.243 0 0 1 11.577 3.1 7.747 7.747 0 0 0 3.921 1.054 7.75 7.75 0 0 0 7.749-7.749v-50.646c0-21.398-17.347-38.744-38.745-38.744Z" fill="#409BBF"/><path d="M426.368 249.393a38.515 38.515 0 0 0-19.419-5.239H227.796a23.37 23.37 0 0 1-22.037-15.776l-1.317-4.246a38.93 38.93 0 0 0-36.776-26.47h-55.172a37.072 37.072 0 0 0-18.97 5.006 38.65 38.65 0 0 0-19.774 33.738v185.972c0 21.397 17.346 38.744 38.744 38.744h294.455c21.398 0 38.744-17.347 38.744-38.744V282.899a38.478 38.478 0 0 0-19.325-33.506Z" fill="#2CC3D5"/><path d="M259.671 293.068c-20.634 0-37.454 16.82-37.454 37.454v20.883a3.372 3.372 0 0 0 3.405 3.405h13.619a3.372 3.372 0 0 0 3.405-3.405v-20.883c0-9.397 7.627-17.024 17.024-17.024 9.398 0 17.025 7.627 17.025 17.024v6.81a3.372 3.372 0 0 0 3.405 3.405h13.619a3.372 3.372 0 0 0 3.405-3.405v-6.81c0-20.634-16.82-37.454-37.453-37.454Z" fill="#D2DFE6"/><path d="M259.677 293.068c20.634 0 37.454 16.82 37.454 37.454v20.883a3.372 3.372 0 0 1-3.405 3.405h-13.62a3.37 3.37 0 0 1-3.404-3.405v-20.883c0-9.397-7.627-17.024-17.025-17.024-9.397 0-17.024 7.627-17.024 17.024v6.81a3.372 3.372 0 0 1-3.405 3.405h-13.619a3.372 3.372 0 0 1-3.405-3.405v-6.81c-.001-20.634 16.819-37.454 37.453-37.454Z" fill="#D2DFE6"/><path d="M293.717 348.003H225.62a10.202 10.202 0 0 0-10.215 10.215v40.858a10.201 10.201 0 0 0 10.215 10.215h68.098a10.2 10.2 0 0 0 10.214-10.215v-40.858a10.201 10.201 0 0 0-10.215-10.215Z" fill="#F9B42F"/><path d="M269.884 371.838c0 4.427-2.86 8.172-6.81 9.602v10.827c0 2.248-1.702 3.405-3.404 3.405-1.703 0-3.405-1.157-3.405-3.405V381.44c-3.95-1.43-6.81-5.175-6.81-9.602a10.201 10.201 0 0 1 10.215-10.215 10.2 10.2 0 0 1 10.214 10.215Z" fill="#CB9733"/><defs><filter id="folder-7__a" x="82.75" y="445.667" width="354.5" height="58.25" filterUnits="userSpaceOnUse" color-interpolation-filters="sRGB"><feFlood flood-opacity="0" result="BackgroundImageFix"/><feBlend in="SourceGraphic" in2="BackgroundImageFix" result="shape"/><feGaussianBlur stdDeviation="8" result="effect1_foregroundBlur_10272_1672"/></filter></defs></svg>

<svg width="500" height="504" viewBox="0 0 500 504" fill="none" xmlns="http://www.w3.org/2000/svg">
<path d="M301.154 11.9016C175.592 -6.26942 59.0725 80.7886 40.9015 206.351C22.7304 331.914 109.789 448.433 235.351 466.604C360.914 484.775 477.433 397.717 495.604 272.154C513.775 146.592 426.717 30.0726 301.154 11.9016Z" fill="#B2DFFD" fill-opacity="0.5"/>
<g opacity="0.1" filter="url(#filter0_f_10272_1672)">
<path d="M421.25 474.792C421.25 482.04 349.056 487.917 260 487.917C170.944 487.917 98.75 482.04 98.75 474.792C98.75 467.543 170.944 461.667 260 461.667C349.056 461.667 421.25 467.543 421.25 474.792Z" fill="#0A0F1A"/>
</g>
<path d="M391.451 166.667H127.991C106.645 166.632 89.3123 183.908 89.2774 205.255C89.2745 206.992 89.3885 208.727 89.6196 210.448C90.1688 214.692 94.0545 217.687 98.2992 217.138C99.3329 217.004 100.329 216.663 101.228 216.135C104.646 214.146 108.539 213.118 112.494 213.16H167.666C177.623 213.187 186.469 219.52 189.704 228.936L191.021 233.182C196.353 248.966 211.137 259.607 227.797 259.652H406.949C411.013 259.656 415.004 260.724 418.526 262.752C419.716 263.446 421.069 263.809 422.447 263.806C426.726 263.806 430.196 260.336 430.196 256.057V205.411C430.196 184.013 412.849 166.667 391.451 166.667Z" fill="#0D4FC1"/>
<path d="M426.368 249.393C420.473 245.957 413.772 244.15 406.949 244.154H227.796C217.84 244.127 208.994 237.794 205.759 228.378L204.442 224.132C199.11 208.348 184.325 197.707 167.666 197.662H112.494C105.836 197.597 99.2841 199.326 93.5248 202.668C81.3109 209.503 73.7464 222.409 73.75 236.406V422.378C73.75 443.775 91.0962 461.122 112.494 461.122H406.949C428.347 461.122 445.693 443.775 445.693 422.378V282.899C445.741 269.069 438.363 256.277 426.368 249.393Z" fill="#0096FA"/>
<path d="M259.671 293.068C239.037 293.068 222.217 309.888 222.217 330.522V351.405C222.217 353.312 223.715 354.81 225.622 354.81H239.241C241.148 354.81 242.646 353.312 242.646 351.405V330.522C242.646 321.125 250.273 313.498 259.67 313.498C269.068 313.498 276.695 321.125 276.695 330.522V337.332C276.695 339.239 278.193 340.737 280.1 340.737H293.719C295.626 340.737 297.124 339.239 297.124 337.332V330.522C297.124 309.888 280.304 293.068 259.671 293.068Z" fill="#0D4FC1"/>
<path d="M259.677 293.068C280.311 293.068 297.131 309.888 297.131 330.522V351.405C297.131 353.312 295.633 354.81 293.726 354.81H280.106C278.199 354.81 276.702 353.312 276.702 351.405V330.522C276.702 321.125 269.075 313.498 259.677 313.498C250.28 313.498 242.653 321.125 242.653 330.522V337.332C242.653 339.239 241.155 340.737 239.248 340.737H225.629C223.722 340.737 222.224 339.239 222.224 337.332V330.522C222.223 309.888 239.043 293.068 259.677 293.068Z" fill="#0D4FC1"/>
<path d="M293.717 348.003H225.62C219.968 348.003 215.405 352.566 215.405 358.218V399.076C215.405 404.729 219.968 409.291 225.62 409.291H293.718C299.37 409.291 303.932 404.729 303.932 399.076V358.218C303.932 352.566 299.37 348.003 293.717 348.003Z" fill="#C5D9FB"/>
<path d="M269.884 371.838C269.884 376.265 267.024 380.01 263.074 381.44V392.267C263.074 394.515 261.372 395.672 259.67 395.672C257.967 395.672 256.265 394.515 256.265 392.267V381.44C252.315 380.01 249.455 376.265 249.455 371.838C249.455 366.186 254.017 361.623 259.67 361.623C265.322 361.623 269.884 366.186 269.884 371.838Z" fill="#0D4FC1"/>
<defs>
<filter id="filter0_f_10272_1672" x="82.75" y="445.667" width="354.5" height="58.25" filterUnits="userSpaceOnUse" color-interpolation-filters="sRGB">
<feFlood flood-opacity="0" result="BackgroundImageFix"/>
<feBlend mode="normal" in="SourceGraphic" in2="BackgroundImageFix" result="shape"/>
<feGaussianBlur stdDeviation="8" result="effect1_foregroundBlur_10272_1672"/>
</filter>
</defs>
</svg>
